X:1
T:Anvers, 87.87 D
T:Anvers, 87.87 D
T:Irving Porter Emerick, before 1894
T:Public Domain Courtesy of the Cyber Hymnal™
C:Irving Porter Emerick, before 1894
Z:Public Domain
Z:Courtesy of the Cyber Hymnal™
%%score ( 1 2 ) ( 3 4 )
L:1/8
Q:1/4=90
M:6/8
K:D
V:1 treble 
V:2 treble 
V:3 bass 
V:4 bass 
V:1
 [DF][DG][DF] [CE][CF][CE] | [A,D]3 [Fd]3 | [Ac][GB][FA] [EG][DF][A,D] | ([DF]3 [CE]3) | %4
 [DF][DG][DF] [DF][FA][Fd] | [Gd]3 [GB]3 | [FA]D[EG] [DF][EG][CE] | D6 | %8
 [CE][CE][DF] [EG][DF][CE] | [DF]3 [FA]3 | [GB][GB][GB] [Bd][Ac][GB] | [FA]6 | %12
 [Fd][Fd][Fd] [Fd][Ac][GB] | [FA]3 [EG]3 | [DF][DG][DF] [CE][CF][CE] | D6 |] %16
V:2
 x6 | x6 | x6 | x6 | x6 | x6 | x D x4 | D6 | x6 | x6 | x6 | x6 | x6 | x6 | x6 | D6 |] %16
V:3
 [D,A,][D,B,][D,A,] [A,,G,][A,,A,][A,,G,] | [D,F,]3 [D,A,]3 | %2
 [A,,A,][A,,A,][B,,A,] [C,A,][D,A,][D,F,] | [A,,A,]6 | [D,A,][D,A,][D,A,] [D,A,][D,D][D,A,] | %5
 [G,B,]3 [G,D]3 | [A,D][F,A,][G,B,] A,[A,,A,][A,,G,] | [D,F,]6 | %8
 [A,,A,][A,,A,][A,,A,] [A,,A,][A,,A,][A,,A,] | [D,A,]3 [D,D]3 | DDD [G,D][G,D][G,D] | D6 | %12
 [D,A,][D,A,][D,A,] [D,A,][D,D][D,D] | [D,D]3 [C,A,]3 | [D,A,][D,B,][D,A,] [A,,G,][A,,A,][A,,G,] | %15
 [D,F,]6 |] %16
V:4
 x6 | x6 | x6 | x6 | x6 | x6 | x3 A, x2 | x6 | x6 | x6 | x6 | (D,D,D, D,3) | x6 | x6 | x6 | x6 |] %16

